X:1
T:Yes, He Will
T:Yes, He Will
T:Charles Austin Miles
T:Thomas M. Eastwood, 1905
T:Public Domain Courtesy of the Cyber Hymnal™
C:Charles Austin Miles
Z:Public Domain
Z:Courtesy of the Cyber Hymnal™
%%score ( 1 2 ) 3
L:1/8
Q:1/4=85
M:4/4
K:Eb
V:1 treble 
V:2 treble 
V:3 bass 
V:1
 E>[EF] | [EG]>[E^F] [EG]>[EF] [EG]<[GB] [GB]>[Ac] | [GB]>[EG] [DB]>[FA] [EG]2 E>[EF] | %3
w: 1.~When our|earth- ly toils are o- ver, And low|sinks life’s set- ting sun, Will the|
w: 2.~Will He|give His gra- cious wel- come, To His|ev- er- last- ing rest, And pro-|
w: 3.~Will He|place a crown of glo- ry On our|fore- heads in His love, When He|
w: 4.~Will He|bid us ga- ther round Him, And to|fol- low in His train, When with|
 [EG]>[E^F] [EG]>[EF] [EG]<[GB] [GB]>[Ge] | [Fd]>[Fc] [FB]>[E=A] !fermata![DB]2 ||"^Refrain" B>B | %6
w: Mas- ter fond- ly greet us, With a|joy- ous, glad “Well done”?||
w: vide a home e- ter- nal, In the|man- sions of the blest?|Yes, He|
w: reigns in roy- al splen- dor, In His|king- dom up a- bove?||
w: all His shin- ing an- gels, He des-|cends to earth a- gain?||
 (z2 e>)c x6 | (z2 G2) [GB]>[GB] x2 | [FB]>[DF] [DF]>[EG] [FA]2 [Ac]>[Ac] | %9
w: |||
w: * will,|* yes, He|* will; All His prom- is- es|
w: |||
w: |||
 [Ac]>[GB] [EG]>[FA] [GB]2 B>B | (z2 e>)c x6 | (z2 E>)[EF] x6 | [EG]2 [EB]2 [EG]3 [DF] | E6 |] %14
w: |||||
w: are true, He will keep His word|* to|* you.|Yes, He will, yes,|He|
w: |||||
w: |||||
V:2
 E3/2 x/ | x8 | x6 E3/2 x/ | x8 | x6 || x2 | (e6 G>G G2) | B4 G>G x2 | x8 | x8 | (e6 G>G G2) | %11
 (B6 G>G G2) | x8 | E6 |] %14
V:3
 [E,G,]>[E,A,] | [E,B,]>[E,=A,] [E,B,]>[E,A,] [E,B,]<[E,E] [E,E]>[E,E] | %2
w: ~ ~|~ ~ ~ ~ ~ ~ ~ ~|
 [E,E]>[E,B,] [B,,B,]>[B,,B,] [E,B,]2 [E,G,]>[E,A,] | %3
w: ~ ~ ~ ~ ~ ~ ~|
 [E,B,]>[E,=A,] [E,B,]>[E,A,] [E,B,]<[E,E] [E,E]>[E,B,] | %4
w: ~ ~ ~ ~ ~ ~ ~ ~|
 [F,B,]>[F,E] [F,D]>[F,C] !fermata![B,,B,]2 || z2 | z2 [E,B,]>[E,B,] [E,B,]2 z2 x2 | %7
w: ~ ~ ~ ~ ~||Yes, He will,|
 z2 [E,E]>[E,E] [E,E]2 [E,E]>[E,E] | [B,D]>[B,,B,] [B,,B,]>[B,,B,] [B,,B,]2 [D,B,]>[D,B,] | %9
w: yes, He will * *||
 [E,E]>[E,E] [E,B,]>[E,B,] [E,E]2 z2 | z2 [E,B,]>[E,B,] [E,B,]2 z2 x2 | %11
w: ||
 z2 [E,E]>[E,E] [E,E]2 [E,G,]>[E,A,] x2 | [E,B,]2 [E,G,]2 [B,,B,]3 [B,,A,] | [E,G,]6 |] %14
w: |||

